X:276
T:
R:polska
S:Efter »Florsen» i Burs.
N:Gammal vismelodi (orden ej lämpliga för publicering: »Känner du Vantalena» etc.).
O:Gotland, Burs
M:3/4
L:1/16
K:Dm
f2af d2d2 ^c2c2|d2d2 e2eg f4|f2af d2d2 ^c2c2|A3^c d6 z2::
defg a2f2f2f2|efga b4 g4|cdef g2e2e2e2|defg a4 f4|f2af d2d2^c2c2|
d2d2 e2eg f4|f2af d2d2^c2c2|A3^c d6 z2:|

